X:0094
T:Quick Step 15th. Regt.
M:6/8
L:1/8
Q:3/8=84
I: :: ||
Z:Jack Campin * www.campin.me.uk * 2009
K:D
DFA dfe|dcd  A2F|GBE FAd|edc d3:|
agf geA|f>ge fdA|d2e fga|agf e2A|
dce d2e|fga  A2A|Bcd Bgf|edc d3|]
<end>
<start>
